X: 41
T: Am Yisrael Chai
Z: 2009 John Chambers <jc:trillian.mit.edu>
M: C
L: 1/8
K: Dphr
%%indent 100
| "D"DE "Cm"CE "D"D4 | "D"DE "Cm"CE "D"D4 |
w: Am Yis-ra-el chai, am Yis-ra-el chai,
| "Gm"DG ^FG "D"D4 | "Cm"cB BA "D"A4 | "Cm"cB BA AG G^F |
w: Am Yis-ra-el chai, ad b'-li-*dai, ad b'-li-*dai,___
| "Cm"AG G^F FE ED | "D"DE "Cm"CE "D"D4 | "D"DE "Cm"CE "D"D4 |]
w: Ad b'-li-*dai,___ am Yis-ra-el chai, am Yis-ra-el chai.



